assets/symbols/mulberry/computer_1.svg

<svg height="850.394" viewBox="0 0 850.394 850.394" width="850.394" xmlns="http://www.w3.org/2000/svg"><path d="m356.97 373.83h150.18v56.29h-150.18z" fill="#ffeec8"/><path d="m771.8 742.56c2.59 20.46-10.08 22.45-22.45 22.45h-632.57c-12.38 0-24.95-1.99-22.36-22.45l21.06-81.63c3.19-15.56 10.08-22.35 22.35-22.35h590.46c12.38 0 19.26 6.79 22.45 22.35zm-.2 22.45v44.81h-676.68v-44.81h654.43z" fill="#787878"/><path d="m699.75 430.12v179.81h-535.37v-179.81zm-46.4 135.31v-29.64h-164.96v29.64zm0-66.16v-29.64h-102.69v29.64z" fill="#ffeec8"/><path d="m488.39 535.79h164.96v29.64h-164.96zm62.27-66.16h102.689v29.64h-102.689z" fill="#c8c8c8"/><path d="m602.75 324.74c6.09 0 10.88 4.88 10.88 10.87s-4.79 10.88-10.88 10.88c-5.98 0-10.78-4.89-10.78-10.88s4.8-10.87 10.78-10.87z" fill="#00e800"/><path d="m261.57 80.45h340.99v228.32h-340.99z" fill="#00efdc"/><path d="m614.52 42.93c14.78 0 26.66 11.88 26.66 26.54v265.85c0 14.76-11.88 26.64-26.66 26.64h-365.92c-14.67 0-26.64-11.88-26.64-26.64v-265.85c0-14.66 11.97-26.54 26.64-26.54zm-25.34 292.88c0-5.99-4.89-10.87-10.88-10.87-5.979 0-10.87 4.88-10.87 10.87s4.891 10.88 10.87 10.88c5.99 0 10.88-4.89 10.88-10.88zm2.79-.2c0 5.99 4.8 10.88 10.78 10.88 6.09 0 10.88-4.89 10.88-10.88s-4.79-10.87-10.88-10.87c-5.98 0-10.78 4.88-10.78 10.87zm10.59-26.84v-228.32h-340.99v228.32z" fill="#ffeec8"/><path d="m578.3 324.94c5.99 0 10.88 4.88 10.88 10.87s-4.89 10.88-10.88 10.88c-5.979 0-10.87-4.89-10.87-10.88s4.89-10.87 10.87-10.87z" fill="#00e800"/><g fill="none"><g stroke="#000" stroke-width="23.708"><path d="m641.18 335.32c0 14.76-11.88 26.64-26.66 26.64h-365.92c-14.67 0-26.64-11.88-26.64-26.64v-265.85c0-14.66 11.97-26.54 26.64-26.54h365.92c14.78 0 26.66 11.88 26.66 26.54z"/><path d="m261.57 80.45h340.99v228.32h-340.99zm95.4 349.67v-56.29h150.18v56.29m0 0h192.6v179.81h-535.37v-179.81h192.59z"/><path d="m488.39 535.79h164.96v29.64h-164.96zm62.27-66.16h102.689v29.64h-102.689zm-433.88 295.38c-12.38 0-24.95-1.99-22.36-22.45l21.06-81.63c3.19-15.56 10.08-22.35 22.35-22.35h571m40.52 126.43c12.37 0 25.04-1.99 22.45-22.45l-21.06-81.63c-3.19-15.56-10.07-22.35-22.45-22.35h-19.46"/><path d="m159.79 672.11h546.54m-546.54 31.63h546.54m-120.14 34.93h136.01" stroke-dasharray="23.708"/><path d="m287.81 738.67h282.61"/><path d="m159.79 738.67h128.02" stroke-dasharray="23.708"/><path d="m749.35 765.01h22.25v44.81h-676.68v-44.81h629.08z"/></g><path d="m0 0h850.394v850.394h-850.394z"/></g></svg>

<svg xmlns="http://www.w3.org/2000/svg" width="850.394" height="850.394" viewBox="0 0 850.394 850.394" overflow="visible"><path fill="#ffeec8" d="M356.97 373.83h150.18v56.29H356.97z"/><path d="M771.8 742.56c2.59 20.46-10.08 22.45-22.45 22.45H116.78c-12.38 0-24.95-1.99-22.36-22.45l21.06-81.63c3.19-15.56 10.08-22.35 22.35-22.35h590.46c12.38 0 19.26 6.79 22.45 22.35l21.06 81.63zM771.6 765.01v44.81H94.92v-44.81H749.35z" fill="#787878"/><path d="M699.75 430.12v179.81H164.38V430.12h535.37zm-46.4 135.31v-29.64H488.39v29.64h164.96zm0-66.16v-29.64H550.66v29.64h102.69z" fill="#ffeec8"/><path fill="#c8c8c8" d="M488.39 535.79h164.96v29.64H488.39zM550.66 469.63h102.689v29.64H550.66z"/><path d="M602.75 324.74c6.09 0 10.88 4.88 10.88 10.87 0 5.99-4.79 10.88-10.88 10.88-5.98 0-10.78-4.89-10.78-10.88 0-5.99 4.8-10.87 10.78-10.87z" fill="#00e800"/><path fill="#00efdc" d="M261.57 80.45h340.99v228.32H261.57z"/><path d="M614.52 42.93c14.78 0 26.66 11.88 26.66 26.54v265.85c0 14.76-11.88 26.64-26.66 26.64H248.6c-14.67 0-26.64-11.88-26.64-26.64V69.47c0-14.66 11.97-26.54 26.64-26.54h365.92zm-25.34 292.88c0-5.99-4.89-10.87-10.88-10.87-5.979 0-10.87 4.88-10.87 10.87 0 5.99 4.891 10.88 10.87 10.88 5.99 0 10.88-4.89 10.88-10.88zm2.79-.2c0 5.99 4.8 10.88 10.78 10.88 6.09 0 10.88-4.89 10.88-10.88 0-5.99-4.79-10.87-10.88-10.87-5.98 0-10.78 4.88-10.78 10.87zm10.59-26.84V80.45H261.57v228.32h340.99z" fill="#ffeec8"/><path d="M578.3 324.94c5.99 0 10.88 4.88 10.88 10.87 0 5.99-4.89 10.88-10.88 10.88-5.979 0-10.87-4.89-10.87-10.88 0-5.99 4.89-10.87 10.87-10.87z" fill="#00e800"/><g fill="none" stroke="#000" stroke-width="23.708"><path d="M641.18 335.32c0 14.76-11.88 26.64-26.66 26.64H248.6c-14.67 0-26.64-11.88-26.64-26.64V69.47c0-14.66 11.97-26.54 26.64-26.54h365.92c14.78 0 26.66 11.88 26.66 26.54v265.85z"/><path d="M261.57 80.45h340.99v228.32H261.57zM356.97 430.12v-56.29h150.18v56.29M507.15 430.12h192.6v179.81H164.38V430.12h192.59z"/><path d="M488.39 535.79h164.96v29.64H488.39zM550.66 469.63h102.689v29.64H550.66zM116.78 765.01c-12.38 0-24.95-1.99-22.36-22.45l21.06-81.63c3.19-15.56 10.08-22.35 22.35-22.35h571M749.35 765.01c12.37 0 25.04-1.99 22.45-22.45l-21.06-81.63c-3.19-15.56-10.07-22.35-22.45-22.35h-19.46"/><path stroke-dasharray="23.708" d="M159.79 672.11h546.54M159.79 703.74h546.54M586.19 738.67H722.2"/><path d="M287.81 738.67h282.61"/><path stroke-dasharray="23.708" d="M159.79 738.67h128.02"/><path d="M749.35 765.01h22.25v44.81H94.92v-44.81H724z"/></g><path fill="none" d="M0 0h850.394v850.394H0z"/></svg>
